img/maps-and-flags.svg

<svg width="24" height="24" viewBox="0 0 24 24" fill="none" xmlns="http://www.w3.org/2000/svg">
<path d="M12 0C7.20726 0 3.30811 3.89916 3.30811 8.69184C3.30811 14.6397 11.0865 23.3715 11.4177 23.7404C11.7287 24.0868 12.2718 24.0862 12.5823 23.7404C12.9135 23.3715 20.6919 14.6397 20.6919 8.69184C20.6918 3.89916 16.7927 0 12 0ZM12 22.0185C9.38217 18.909 4.87336 12.774 4.87336 8.69194C4.87336 4.76222 8.07032 1.56525 12 1.56525C15.9297 1.56525 19.1266 4.76222 19.1266 8.69189C19.1266 12.7741 14.6185 18.908 12 22.0185Z" fill="#08415C"/>
<path d="M12 4.31873C9.58867 4.31873 7.62695 6.28049 7.62695 8.69183C7.62695 11.1032 9.58872 13.0649 12 13.0649C14.4113 13.0649 16.373 11.1032 16.373 8.69183C16.373 6.28049 14.4113 4.31873 12 4.31873ZM12 11.4997C10.4517 11.4997 9.1922 10.2401 9.1922 8.69183C9.1922 7.14355 10.4518 5.88398 12 5.88398C13.5482 5.88398 14.8078 7.14355 14.8078 8.69183C14.8078 10.2401 13.5482 11.4997 12 11.4997Z" fill="#08415C"/>
</svg>

<svg width="24" height="24" viewBox="0 0 24 24" fill="none" xmlns="http://www.w3.org/2000/svg"><path d="M12 0C7.207 0 3.308 3.9 3.308 8.692c0 5.948 7.778 14.68 8.11 15.048a.783.783 0 0 0 1.164 0c.332-.368 8.11-9.1 8.11-15.048C20.692 3.899 16.792 0 12 0zm0 22.018C9.382 18.91 4.873 12.774 4.873 8.692A7.135 7.135 0 0 1 12 1.565a7.135 7.135 0 0 1 7.127 7.127c0 4.082-4.508 10.216-7.127 13.326z" fill="#08415C"/><path d="M12 4.319a4.378 4.378 0 0 0-4.373 4.373A4.378 4.378 0 0 0 12 13.065a4.378 4.378 0 0 0 4.373-4.373A4.378 4.378 0 0 0 12 4.319zm0 7.18a2.811 2.811 0 0 1-2.808-2.807A2.811 2.811 0 0 1 12 5.884a2.811 2.811 0 0 1 2.808 2.808A2.811 2.811 0 0 1 12 11.5z" fill="#08415C"/></svg>
